X: 20933
M: 2/4
L: 1/8
K: F
V: 1 name="6"
[|\
f2 fe | ed d2 | B(c/B/) AB/A/ | G2 c/B/ H|]
f3 f | gf dB | Ac BG | F3 "^D.C."z |]
c |\
c3 c | c3 c | f2 fe | e2 dz |\
g3 e | gfed | c3 d/e/ | G3 A/B/ |\
c3 =B | A=B ce/d/ | c3 B | cBA"^D.C."G |]


